X:1
T:Yellow Hair'd Laddie -- Reel
R:reel
B:Ryan's Mammoth Collection
N: 277
N:AKA Five Mile Chase
Z: Contributed by Ray Davies,  ray:davies99.freeserve.co.uk
M:2/4
L:1/16
K:G
u((3DEF)"^Segno"|\
.G2(BG) (dG)(BG) | FDAD BDAD | .G2(BG) (dG)(Bd) | (eg)fa (ge)dB |
.G2(BG) (dG)(BG) | FDAD BDAD | .G2(BG) dGBd | (eg)(fa) g2:|
|:v.g.d(Bd) .e.d(Bd) | eaag fdef | gdBd edBd | (eg).f.a g2 z2 |
(ga).b.g (ef).g.e | dedc BGBd | efed edBd | egfa gedB "^Segno":|
